svg/s/KI.svg

<svg width="16" height="12" viewBox="0 0 16 12" fill="none" xmlns="http://www.w3.org/2000/svg">
<mask id="mask0" mask-type="alpha" maskUnits="userSpaceOnUse" x="0" y="0" width="16" height="12">
<rect width="16" height="12" fill="white"/>
</mask>
<g mask="url(#mask0)">
<path fill-rule="evenodd" clip-rule="evenodd" d="M0 0V12H16V0H0Z" fill="#E31D1C"/>
<mask id="mask1" mask-type="alpha" maskUnits="userSpaceOnUse" x="0" y="0" width="16" height="12">
<path fill-rule="evenodd" clip-rule="evenodd" d="M0 0V12H16V0H0Z" fill="white"/>
</mask>
<g mask="url(#mask1)">
<path fill-rule="evenodd" clip-rule="evenodd" d="M7.66165 8.58843L7.89055 8.09205L8.11946 8.58843L8.25533 8.05948L8.56992 8.50735L8.60838 7.96284L8.99854 8.34779L8.93837 7.80522L9.39155 8.11489L9.23467 7.59169L9.73632 7.81612L9.48777 7.32912L10.0218 7.4611L9.68954 7.02594L10.2387 7.06122L9.83349 6.6919L10.3802 6.62935L9.91498 6.33773L10.4416 6.17937L9.93142 5.97482L10.4211 5.72573L9.88225 5.61483L10.3192 5.28302L9.76907 5.26934L10.1393 4.86547L9.59552 4.94944L9.88708 4.4865L9.36717 4.66542L9.5707 4.15828L9.09135 4.42641L9.20032 3.89137L8.77694 4.24008L8.78784 3.69435L8.43405 4.11244L8.34653 3.57354L8.07368 4.04757L7.89055 3.53284L7.70743 4.04757L7.43458 3.57354L7.34706 4.11244L6.99327 3.69435L7.00417 4.24008L6.58079 3.89137L6.68976 4.42641L6.21041 4.15828L6.41394 4.66542L5.89403 4.4865L6.18559 4.94944L5.64182 4.86547L6.01203 5.26934L5.46189 5.28302L5.89886 5.61483L5.36002 5.72573L5.84969 5.97482L5.33948 6.17937L5.86612 6.33773L5.40093 6.62935L5.94762 6.6919L5.5424 7.06122L6.09157 7.02594L5.75935 7.4611L6.29334 7.32912L6.04479 7.81612L6.54644 7.59169L6.38956 8.11489L6.84274 7.80522L6.78257 8.34779L7.17272 7.96284L7.21119 8.50735L7.52578 8.05948L7.66165 8.58843Z" fill="#FFC84A"/>
<path fill-rule="evenodd" clip-rule="evenodd" d="M-0.396005 6.96L0.911418 6.4294C1.10199 6.35206 1.31538 6.353 1.50527 6.43202L3.32064 7.1875C3.52604 7.27297 3.75814 7.26681 3.95871 7.17055L5.42302 6.46783C5.63304 6.36704 5.87708 6.36525 6.08856 6.46294L7.62228 7.17148C7.8289 7.26693 8.06688 7.26752 8.27397 7.17308L9.84334 6.45739C10.0504 6.36298 10.2883 6.36354 10.4948 6.45891L12.0443 7.1742C12.2476 7.26808 12.4815 7.27015 12.6865 7.17989L14.3795 6.4344C14.5628 6.35369 14.7701 6.34647 14.9586 6.41423L16.4765 6.96V11.9668H-0.440491L-0.396005 6.96Z" fill="#F7FCFF"/>
<mask id="mask2" mask-type="alpha" maskUnits="userSpaceOnUse" x="-1" y="6" width="18" height="6">
<path fill-rule="evenodd" clip-rule="evenodd" d="M-0.396005 6.96L0.911418 6.4294C1.10199 6.35206 1.31538 6.353 1.50527 6.43202L3.32064 7.1875C3.52604 7.27297 3.75814 7.26681 3.95871 7.17055L5.42302 6.46783C5.63304 6.36704 5.87708 6.36525 6.08856 6.46294L7.62228 7.17148C7.8289 7.26693 8.06688 7.26752 8.27397 7.17308L9.84334 6.45739C10.0504 6.36298 10.2883 6.36354 10.4948 6.45891L12.0443 7.1742C12.2476 7.26808 12.4815 7.27015 12.6865 7.17989L14.3795 6.4344C14.5628 6.35369 14.7701 6.34647 14.9586 6.41423L16.4765 6.96V11.9668H-0.440491L-0.396005 6.96Z" fill="white"/>
</mask>
<g mask="url(#mask2)">
<path d="M-0.395996 8.12287L0.911427 7.59227C1.102 7.51493 1.31539 7.51587 1.50528 7.59489L3.32065 8.35037C3.52605 8.43584 3.75815 8.42968 3.95872 8.33342L5.42302 7.6307C5.63305 7.52991 5.87709 7.52812 6.08857 7.62581L7.62229 8.33435C7.82891 8.4298 8.06689 8.43039 8.27398 8.33595L9.84335 7.62026C10.0504 7.52586 10.2883 7.52641 10.4949 7.62178L12.0443 8.33707C12.2476 8.43095 12.4815 8.43302 12.6865 8.34276L14.3795 7.59727C14.5628 7.51656 14.7701 7.50934 14.9586 7.5771L16.4765 8.12287" stroke="#015989"/>
<path d="M-0.395996 9.7873L0.911427 9.2567C1.102 9.17936 1.31539 9.1803 1.50528 9.25932L3.32065 10.0148C3.52605 10.1003 3.75815 10.0941 3.95872 9.99785L5.42302 9.29513C5.63305 9.19434 5.87709 9.19255 6.08857 9.29024L7.62229 9.99878C7.82891 10.0942 8.06689 10.0948 8.27398 10.0004L9.84335 9.28469C10.0504 9.19028 10.2883 9.19084 10.4949 9.2862L12.0443 10.0015C12.2476 10.0954 12.4815 10.0974 12.6865 10.0072L14.3795 9.2617C14.5628 9.18099 14.7701 9.17377 14.9586 9.24153L16.4765 9.7873" stroke="#015989"/>
<path fill-rule="evenodd" clip-rule="evenodd" d="M-0.395996 11.1136L0.149837 10.8921C0.828339 10.6167 1.58806 10.6201 2.26411 10.9014L3.32065 11.3411C3.52605 11.4266 3.75815 11.4204 3.95872 11.3242L4.57398 11.0289C5.32171 10.6701 6.19059 10.6637 6.94351 11.0115L7.62229 11.3251C7.82891 11.4206 8.06689 11.4211 8.27398 11.3267L9.00845 10.9918C9.74551 10.6556 10.5925 10.6576 11.328 10.9971L12.0443 11.3278C12.2476 11.4217 12.4815 11.4238 12.6865 11.3335L13.6485 10.9099C14.3011 10.6225 15.0392 10.5968 15.7102 10.8381L16.4765 11.1136V12.7711H-0.304188L-0.395996 11.1136Z" fill="#015989"/>
</g>
<path fill-rule="evenodd" clip-rule="evenodd" d="M4.80069 1.19898C4.80069 1.19898 5.51304 1.34146 5.74735 1.34146C5.98165 1.34146 6.51025 0.983198 6.81599 1.10262C7.12173 1.22204 7.70979 1.78678 7.70979 1.78678C7.70979 1.78678 8.5427 1.16204 9.04953 1.16204C9.55637 1.16204 10.487 1.22994 10.487 1.22994C10.487 1.22994 10.2725 1.78667 9.6692 1.88098C9.06592 1.97528 8.34415 2.43715 8.34415 2.43715C8.34415 2.43715 9.17518 2.43715 9.32466 2.43715C9.47415 2.43715 9.96879 2.71361 9.96879 2.71361C9.96879 2.71361 9.26679 2.93596 9.06592 2.93596C8.86506 2.93596 8.64317 2.93596 8.64317 2.93596C8.64317 2.93596 8.21609 3.30245 7.68849 3.22447C7.16089 3.1465 6.7918 2.80804 6.7918 2.80804C6.7918 2.80804 6.0471 2.75913 6.0471 2.67952C6.0471 2.67952 5.76266 2.53374 5.67704 2.67952C5.59142 2.8253 6.0471 2.4843 6.0471 2.4843C6.0471 2.4843 6.45866 2.15016 6.59811 2.15016C6.73757 2.15016 7.20327 2.43715 7.20327 2.43715L7.31447 2.32154L6.73757 1.88098C5.56086 2.00427 4.80069 1.19898 4.80069 1.19898Z" fill="#FFC84A"/>
</g>
</g>
</svg>

<svg width="16" height="12" fill="none" xmlns="http://www.w3.org/2000/svg">
  <mask id="a" maskUnits="userSpaceOnUse" x="0" y="0" width="16" height="12">
    <path fill="#fff" d="M0 0h16v12H0z"/>
  </mask>
  <g mask="url(#a)">
    <path fill-rule="evenodd" clip-rule="evenodd" d="M0 0v12h16V0H0z" fill="#E31D1C"/>
    <mask id="b" maskUnits="userSpaceOnUse" x="0" y="0" width="16" height="12">
      <path fill-rule="evenodd" clip-rule="evenodd" d="M0 0v12h16V0H0z" fill="#fff"/>
    </mask>
    <g mask="url(#b)">
      <path fill-rule="evenodd" clip-rule="evenodd" d="M7.662 8.588l.229-.496.228.496.136-.528.315.447.038-.544.39.385-.06-.543.454.31-.157-.523.501.224-.248-.487.534.132-.332-.435.549.035-.406-.369.547-.063-.465-.291.527-.159-.51-.204.49-.25-.54-.11.437-.332-.55-.014.37-.403-.543.083.291-.462-.52.178.204-.507-.48.268.11-.535-.424.35.01-.547-.353.418-.087-.538-.273.474-.183-.515-.184.515-.272-.474-.088.538-.354-.418.011.546-.423-.349.109.535-.48-.268.204.507-.52-.178.292.462-.544-.083.37.403-.55.014.437.332-.539.11.49.25-.51.204.526.159-.465.291.547.063-.406.37.55-.036-.333.435.534-.132-.248.487.501-.224-.156.523.453-.31-.06.543.39-.385.038.544.315-.447.136.528z" fill="#FFC84A"/>
      <path fill-rule="evenodd" clip-rule="evenodd" d="M-.396 6.96L.91 6.43a.781.781 0 01.594.002l1.816.756a.784.784 0 00.638-.017l1.464-.703c.21-.1.454-.103.665-.005l1.534.709a.781.781 0 00.652.001l1.57-.716a.781.781 0 01.65.002l1.55.715a.781.781 0 00.642.006l1.693-.746a.781.781 0 01.58-.02l1.517.546v5.007H-.44l.045-5.007z" fill="#F7FCFF"/>
      <mask id="c" maskUnits="userSpaceOnUse" x="-1" y="6" width="18" height="6">
        <path fill-rule="evenodd" clip-rule="evenodd" d="M-.396 6.96L.91 6.43a.781.781 0 01.594.002l1.816.756a.784.784 0 00.638-.017l1.464-.703c.21-.1.454-.103.665-.005l1.534.709a.781.781 0 00.652.001l1.57-.716a.781.781 0 01.65.002l1.55.715a.781.781 0 00.642.006l1.693-.746a.781.781 0 01.58-.02l1.517.546v5.007H-.44l.045-5.007z" fill="#fff"/>
      </mask>
      <g mask="url(#c)">
        <path d="M-.396 8.123l1.307-.53a.781.781 0 01.594.002l1.816.755c.205.086.437.08.638-.017l1.464-.702a.778.778 0 01.665-.005l1.534.708a.781.781 0 00.652.002l1.57-.716a.781.781 0 01.65.002l1.55.715a.78.78 0 00.642.006l1.693-.746a.781.781 0 01.58-.02l1.517.546M-.396 9.787l1.307-.53a.781.781 0 01.594.002l1.816.756a.78.78 0 00.638-.017l1.464-.703c.21-.1.454-.102.665-.005l1.534.71a.78.78 0 00.652.001l1.57-.715a.781.781 0 01.65.001l1.55.716a.78.78 0 00.642.005l1.693-.745a.781.781 0 01.58-.02l1.517.545" stroke="#015989"/>
        <path fill-rule="evenodd" clip-rule="evenodd" d="M-.396 11.114l.546-.222a2.781 2.781 0 012.114.01l1.057.44a.78.78 0 00.638-.018l.615-.295a2.78 2.78 0 012.37-.017l.678.313a.78.78 0 00.652.002l.734-.335a2.781 2.781 0 012.32.005l.716.33a.781.781 0 00.642.007l.962-.424a2.782 2.782 0 012.062-.072l.766.276v1.657H-.304l-.092-1.657z" fill="#015989"/>
      </g>
      <path fill-rule="evenodd" clip-rule="evenodd" d="M4.8 1.199s.713.143.947.143c.235 0 .763-.359 1.069-.24.306.12.894.685.894.685s.833-.625 1.34-.625c.506 0 1.437.068 1.437.068s-.215.557-.818.651c-.603.094-1.325.556-1.325.556h.98c.15 0 .645.277.645.277s-.702.222-.903.222h-.423s-.427.367-.955.289c-.527-.078-.896-.417-.896-.417s-.745-.049-.745-.128c0 0-.284-.146-.37 0-.086.145.37-.196.37-.196s.412-.334.551-.334c.14 0 .605.287.605.287l.111-.115-.576-.441C5.56 2.004 4.8 1.199 4.8 1.199z" fill="#FFC84A"/>
    </g>
  </g>
</svg>
